**kern	**kern	**dynam
*part1	*part1	*part1
*staff2	*staff1	*
*I"Piano	*	*
*clefF4	*clefG2	*
*k[b-e-a-]	*k[b-e-a-]	*
=1	=1	=1
*	*^	*
4GG 4G	4b-	4d	.
8C 8G	8g	8e-	.
=	=	=	=
4GG 4G	(8b-L	4d	.
.	8g)	.	.
8GG 8G	8b-J	8d	.
=	=	=	=
4AAn 4G	(8anL	4c#X	>
.	8en)	.	.
8AA 8G	8e-XJ	8c#	.
=	=	=	=
((4.D 4.F#X	(4.d	(4.cn	]
*	*v	*v	*
=	=	=
((4.GG)) 4.Fn	((4.Bn)) 4.g	.
=	=	=
8CC:)) 8GG: 8E-:	8G)) 8c	.
8r	8r	.
8r	8r	.
=	=	=
*^	*	*
4.G	(8E-L	(8cL 8g	.
.	8D	8f 8bn	.
.	8CJ)	8e-J) 8cc	.
*v	*v	*	*
=	=	=
4.r	4.r	.
=	=	=
*^	*	*
4.B-	(8GL	(8e-L 8b-X	.
.	8F	8a- 8dd	.
.	8E-J)	8gJ) 8ee-	.
*v	*v	*	*
=	=	=
*-	*-	*-
!!!system-decoration: {(s1,s2)}
